static/img/mobile/button-stacked-dark.svg

<svg fill="none" height="80" viewBox="0 0 124 80" width="124" xmlns="http://www.w3.org/2000/svg"><g fill="#019aeb"><rect fill-opacity=".3" height="78" rx="3" width="122" x="1" y="1"/><path d="m73.2668 16.3733-.5867-.5867.4667-.4667c.44-.44.44-1.1733 0-1.6133l-1.0534-1.0533c-.44-.44-1.1733-.44-1.6133 0l-.4667.4666-.5866-.5866c-.32-.32-.84-.32-1.16 0l-1.64 1.64-1.9067-1.92c-.52-.52-1.36-.52-1.88 0l-6.1467 6.1466c-.3866.3867-.3866 1.0267 0 1.4134.3867.3866 1.0267.3866 1.4134 0l5.68-5.68 1.44 1.44-11.9734 11.96 5 5 15.0134-15.0134c.32-.32.32-.84 0-1.16zm-23.3067 14.7333v4.0533c0 .3734.2933.6667.6667.6667h4.0533c.1733 0 .3467-.0667.4667-.2l1.68-1.68-5-5-1.68 1.68c-.12.12-.2.2933-.2.4667z"/><path d="m21.7363 58.2666h1.0742c1.0528 0 1.8298-.1755 2.3311-.5264s.752-.9023.752-1.6543c0-.7448-.2579-1.2747-.7735-1.5898-.5084-.3151-1.2998-.4727-2.374-.4727h-1.0098zm0 2.707v6.0264h-3.3301v-15.7051h4.5762c2.1341 0 3.7132.3903 4.7373 1.1709 1.0241.7735 1.5362 1.9515 1.5362 3.5342 0 .9238-.2543 1.7474-.7627 2.4707-.5085.7161-1.2282 1.2783-2.1592 1.6865 2.3633 3.5306 3.903 5.8116 4.6191 6.8428h-3.6953l-3.749-6.0264zm16.1592-3.8779c-.6947 0-1.2389.222-1.6328.666-.3939.4369-.6195 1.0599-.6768 1.8692h4.5977c-.0143-.8093-.2256-1.4323-.6338-1.8692-.4082-.444-.9596-.666-1.6543-.666zm.4619 10.1191c-1.9336 0-3.4446-.5335-4.5332-1.6005-1.0885-1.0671-1.6328-2.5782-1.6328-4.5332 0-2.0124.5013-3.5665 1.5039-4.6622 1.0098-1.1028 2.4027-1.6543 4.1787-1.6543 1.6973 0 3.0186.4834 3.9639 1.4502s1.418 2.3025 1.418 4.0069v1.5898h-7.7452c.0358.931.3116 1.6579.8272 2.1807s1.2389.7842 2.1699.7842c.7233 0 1.4072-.0752 2.0518-.2256.6445-.1504 1.3177-.3903 2.0195-.7197v2.5351c-.5729.2865-1.1852.4977-1.8369.6338-.6517.1432-1.4466.2148-2.3848.2148zm18.8985-.2148h-3.2764v-7.0146c0-.8666-.154-1.5147-.4619-1.9444-.308-.4368-.7985-.6553-1.4717-.6553-.9167 0-1.5791.308-1.9873.9239-.4082.6087-.6123 1.622-.6123 3.04v5.6504h-3.2764v-12.0098h2.503l.4404 1.5362h.1826c.3652-.5801.8665-1.017 1.5039-1.3106.6445-.3008 1.375-.4512 2.1914-.4512 1.3965 0 2.4564.3796 3.1797 1.1387.7233.752 1.085 1.8405 1.085 3.2656zm11.25 0-.6338-1.6328h-.086c-.5514.6946-1.1207 1.178-1.708 1.4502-.5801.265-1.3392.3974-2.2773.3974-1.153 0-2.0625-.3294-2.7285-.9882-.6589-.6589-.9883-1.597-.9883-2.8145 0-1.2747.444-2.2129 1.332-2.8144.8952-.6088 2.2416-.9454 4.0391-1.0098l2.084-.0645v-.5263c0-1.2175-.6231-1.8262-1.8692-1.8262-.9596 0-2.0875.29-3.3838.8701l-1.0849-2.2129c1.3821-.7233 2.9147-1.0849 4.5976-1.0849 1.6114 0 2.8467.3509 3.7061 1.0527s1.289 1.7689 1.289 3.2012v8.0029zm-.9668-5.5645-1.2676.043c-.9525.0287-1.6615.2005-2.127.5156s-.6982.795-.6982 1.4395c0 .9238.5299 1.3857 1.5898 1.3857.7591 0 1.3643-.2184 1.8155-.6552.4583-.4369.6875-1.017.6875-1.7403zm17.6416 5.5645h-3.2764v-7.0146c0-.8666-.1468-1.5147-.4404-1.9444-.2865-.4368-.7412-.6553-1.3643-.6553-.8379 0-1.4466.308-1.8262.9239-.3795.6159-.5693 1.6292-.5693 3.04v5.6504h-3.2764v-12.0098h2.503l.4404 1.5362h.1826c.3223-.5515.7878-.9812 1.3965-1.2891.6087-.3151 1.307-.4727 2.0947-.4727 1.7975 0 3.015.5873 3.6524 1.7618h.29c.3223-.5586.7949-.9919 1.418-1.2998.6302-.308 1.3392-.462 2.1269-.462 1.3607 0 2.3884.351 3.083 1.0528.7019.6946 1.0528 1.8118 1.0528 3.3515v7.8311h-3.2871v-7.0146c0-.8666-.1469-1.5147-.4405-1.9444-.2864-.4368-.7412-.6553-1.3642-.6553-.8021 0-1.4037.2865-1.8047.8594-.3939.5729-.5908 1.4824-.5908 2.7285zm16.0843-9.9043c-.695 0-1.239.222-1.6332.666-.3938.4369-.6194 1.0599-.6767 1.8692h4.5979c-.015-.8093-.226-1.4323-.634-1.8692-.408-.444-.96-.666-1.654-.666zm.462 10.1191c-1.934 0-3.4451-.5335-4.5336-1.6005-1.0886-1.0671-1.6329-2.5782-1.6329-4.5332 0-2.0124.5013-3.5665 1.504-4.6622 1.0097-1.1028 2.4026-1.6543 4.1785-1.6543 1.697 0 3.019.4834 3.964 1.4502s1.418 2.3025 1.418 4.0069v1.5898h-7.7451c.0358.931.3115 1.6579.8271 2.1807.516.5228 1.239.7842 2.17.7842.723 0 1.407-.0752 2.052-.2256.644-.1504 1.317-.3903 2.019-.7197v2.5351c-.573.2865-1.185.4977-1.837.6338-.651.1432-1.446.2148-2.384.2148z"/></g><rect height="78" rx="3" stroke="#019aeb" stroke-width="2" width="122" x="1" y="1"/></svg>

<svg width="124" height="80" viewBox="0 0 124 80" fill="none" xmlns="http://www.w3.org/2000/svg">
<rect x="1" y="1" width="122" height="78" rx="3" fill="#019AEB" fill-opacity="0.3"/>
<path d="M73.2668 16.3733L72.6801 15.7866L73.1468 15.3199C73.5868 14.8799 73.5868 14.1466 73.1468 13.7066L72.0934 12.6533C71.6534 12.2133 70.9201 12.2133 70.4801 12.6533L70.0134 13.1199L69.4268 12.5333C69.1068 12.2133 68.5868 12.2133 68.2668 12.5333L66.6268 14.1733L64.7201 12.2533C64.2001 11.7333 63.3601 11.7333 62.8401 12.2533L56.6934 18.3999C56.3068 18.7866 56.3068 19.4266 56.6934 19.8133C57.0801 20.1999 57.7201 20.1999 58.1068 19.8133L63.7868 14.1333L65.2268 15.5733L53.2534 27.5333L58.2534 32.5333L73.2668 17.5199C73.5868 17.1999 73.5868 16.6799 73.2668 16.3599V16.3733ZM49.9601 31.1066V35.1599C49.9601 35.5333 50.2534 35.8266 50.6268 35.8266H54.6801C54.8534 35.8266 55.0268 35.7599 55.1468 35.6266L56.8268 33.9466L51.8268 28.9466L50.1468 30.6266C50.0268 30.7466 49.9468 30.9199 49.9468 31.0933L49.9601 31.1066Z" fill="#019AEB"/>
<path d="M21.7363 58.2666H22.8105C23.8633 58.2666 24.6403 58.0911 25.1416 57.7402C25.6429 57.3893 25.8936 56.8379 25.8936 56.0859C25.8936 55.3411 25.6357 54.8112 25.1201 54.4961C24.6117 54.181 23.8203 54.0234 22.7461 54.0234H21.7363V58.2666ZM21.7363 60.9736V67H18.4062V51.2949H22.9824C25.1165 51.2949 26.6956 51.6852 27.7197 52.4658C28.7438 53.2393 29.2559 54.4173 29.2559 56C29.2559 56.9238 29.0016 57.7474 28.4932 58.4707C27.9847 59.1868 27.265 59.749 26.334 60.1572C28.6973 63.6878 30.237 65.9688 30.9531 67H27.2578L23.5088 60.9736H21.7363ZM37.8955 57.0957C37.2008 57.0957 36.6566 57.3177 36.2627 57.7617C35.8688 58.1986 35.6432 58.8216 35.5859 59.6309H40.1836C40.1693 58.8216 39.958 58.1986 39.5498 57.7617C39.1416 57.3177 38.5902 57.0957 37.8955 57.0957ZM38.3574 67.2148C36.4238 67.2148 34.9128 66.6813 33.8242 65.6143C32.7357 64.5472 32.1914 63.0361 32.1914 61.0811C32.1914 59.0687 32.6927 57.5146 33.6953 56.4189C34.7051 55.3161 36.098 54.7646 37.874 54.7646C39.5713 54.7646 40.8926 55.248 41.8379 56.2148C42.7832 57.1816 43.2559 58.5173 43.2559 60.2217V61.8115H35.5107C35.5465 62.7425 35.8223 63.4694 36.3379 63.9922C36.8535 64.515 37.5768 64.7764 38.5078 64.7764C39.2311 64.7764 39.915 64.7012 40.5596 64.5508C41.2041 64.4004 41.8773 64.1605 42.5791 63.8311V66.3662C42.0062 66.6527 41.3939 66.8639 40.7422 67C40.0905 67.1432 39.2956 67.2148 38.3574 67.2148ZM57.2559 67H53.9795V59.9854C53.9795 59.1188 53.8255 58.4707 53.5176 58.041C53.2096 57.6042 52.7191 57.3857 52.0459 57.3857C51.1292 57.3857 50.4668 57.6937 50.0586 58.3096C49.6504 58.9183 49.4463 59.9316 49.4463 61.3496V67H46.1699V54.9902H48.6729L49.1133 56.5264H49.2959C49.6611 55.9463 50.1624 55.5094 50.7998 55.2158C51.4443 54.915 52.1748 54.7646 52.9912 54.7646C54.3877 54.7646 55.4476 55.1442 56.1709 55.9033C56.8942 56.6553 57.2559 57.7438 57.2559 59.1689V67ZM68.5059 67L67.8721 65.3672H67.7861C67.2347 66.0618 66.6654 66.5452 66.0781 66.8174C65.498 67.0824 64.7389 67.2148 63.8008 67.2148C62.6478 67.2148 61.7383 66.8854 61.0723 66.2266C60.4134 65.5677 60.084 64.6296 60.084 63.4121C60.084 62.1374 60.528 61.1992 61.416 60.5977C62.3112 59.9889 63.6576 59.6523 65.4551 59.5879L67.5391 59.5234V58.9971C67.5391 57.7796 66.916 57.1709 65.6699 57.1709C64.7103 57.1709 63.5824 57.4609 62.2861 58.041L61.2012 55.8281C62.5833 55.1048 64.1159 54.7432 65.7988 54.7432C67.4102 54.7432 68.6455 55.0941 69.5049 55.7959C70.3643 56.4977 70.7939 57.5648 70.7939 58.9971V67H68.5059ZM67.5391 61.4355L66.2715 61.4785C65.319 61.5072 64.61 61.679 64.1445 61.9941C63.679 62.3092 63.4463 62.7891 63.4463 63.4336C63.4463 64.3574 63.9762 64.8193 65.0361 64.8193C65.7952 64.8193 66.4004 64.6009 66.8516 64.1641C67.3099 63.7272 67.5391 63.1471 67.5391 62.4238V61.4355ZM85.1807 67H81.9043V59.9854C81.9043 59.1188 81.7575 58.4707 81.4639 58.041C81.1774 57.6042 80.7227 57.3857 80.0996 57.3857C79.2617 57.3857 78.653 57.6937 78.2734 58.3096C77.8939 58.9255 77.7041 59.9388 77.7041 61.3496V67H74.4277V54.9902H76.9307L77.3711 56.5264H77.5537C77.876 55.9749 78.3415 55.5452 78.9502 55.2373C79.5589 54.9222 80.2572 54.7646 81.0449 54.7646C82.8424 54.7646 84.0599 55.3519 84.6973 56.5264H84.9873C85.3096 55.9678 85.7822 55.5345 86.4053 55.2266C87.0355 54.9186 87.7445 54.7646 88.5322 54.7646C89.8929 54.7646 90.9206 55.1156 91.6152 55.8174C92.3171 56.512 92.668 57.6292 92.668 59.1689V67H89.3809V59.9854C89.3809 59.1188 89.234 58.4707 88.9404 58.041C88.654 57.6042 88.1992 57.3857 87.5762 57.3857C86.7741 57.3857 86.1725 57.6722 85.7715 58.2451C85.3776 58.818 85.1807 59.7275 85.1807 60.9736V67ZM101.265 57.0957C100.57 57.0957 100.026 57.3177 99.6318 57.7617C99.238 58.1986 99.0124 58.8216 98.9551 59.6309H103.553C103.538 58.8216 103.327 58.1986 102.919 57.7617C102.511 57.3177 101.959 57.0957 101.265 57.0957ZM101.727 67.2148C99.793 67.2148 98.2819 66.6813 97.1934 65.6143C96.1048 64.5472 95.5605 63.0361 95.5605 61.0811C95.5605 59.0687 96.0618 57.5146 97.0645 56.4189C98.0742 55.3161 99.4671 54.7646 101.243 54.7646C102.94 54.7646 104.262 55.248 105.207 56.2148C106.152 57.1816 106.625 58.5173 106.625 60.2217V61.8115H98.8799C98.9157 62.7425 99.1914 63.4694 99.707 63.9922C100.223 64.515 100.946 64.7764 101.877 64.7764C102.6 64.7764 103.284 64.7012 103.929 64.5508C104.573 64.4004 105.246 64.1605 105.948 63.8311V66.3662C105.375 66.6527 104.763 66.8639 104.111 67C103.46 67.1432 102.665 67.2148 101.727 67.2148Z" fill="#019AEB"/>
<rect x="1" y="1" width="122" height="78" rx="3" stroke="#019AEB" stroke-width="2"/>
</svg>
